wp-content/themes/principal/images/shape/shape-31.svg

<?xml version="1.0" encoding="UTF-8"?>
<svg width="2550px" height="2492px" viewBox="0 0 2550 2492" version="1.1" xmlns="http://www.w3.org/2000/svg" xmlns:xlink="http://www.w3.org/1999/xlink">
    <!-- Generator: Sketch 52.5 (67469) - http://www.bohemiancoding.com/sketch -->
    <title>Path 41</title>
    <desc>Created with Sketch.</desc>
    <defs>
        <linearGradient x1="61.3753435%" y1="15.7413542%" x2="71.1079657%" y2="89.7538183%" id="linearGradient-1">
            <stop stop-color="#F9FCFF" offset="0%"></stop>
            <stop stop-color="#FEF4E1" offset="100%"></stop>
        </linearGradient>
    </defs>
    <g id="Main-Files" stroke="none" stroke-width="1" fill="none" fill-rule="evenodd">
        <g id="04_index-Saas-Copy" transform="translate(0.000000, -2051.000000)" fill="url(#linearGradient-1)">
            <g id="Our-Services" transform="translate(-47.000000, 1376.000000)">
                <g id="Bg" transform="translate(0.000000, 675.000000)">
                    <path d="M685,435 C845.002163,547.217317 1240.31457,646 1673,443 C2105.68543,240 2530,683 2530,1055 C2530,1374 2457.5,1478 2418.5,1519 C2190.41925,1758.7772 1988,1588 1703,1705 C1509.96112,1784.24754 1476,1902 1479,2036 C1482,2170 1620.54105,2384.42967 1924,2319.42967 C2227.45895,2254.42967 2270,2456 2454.5,2486 C2639,2516 2719.723,2429.77509 2861,2244 C2955.18467,2120.14994 2867.18467,1372.14994 2597,0 C1070.97335,9.67876707 220.973354,15.3454337 47,17 C10.4614109,17.3474987 -37,366 47,362 C131,358 425.5,253 685,435 Z" id="Path-41"></path>
                </g>
            </g>
        </g>
    </g>
</svg>

<?xml version="1.0" encoding="utf-8"?>
<!-- Generator: Adobe Illustrator 24.1.3, SVG Export Plug-In . SVG Version: 6.00 Build 0)  -->
<svg version="1.1" id="Capa_1" xmlns="http://www.w3.org/2000/svg" xmlns:xlink="http://www.w3.org/1999/xlink" x="0px" y="0px"
	 viewBox="0 0 2550 2492" style="enable-background:new 0 0 2550 2492;" xml:space="preserve">
<style type="text/css">
	.st0{fill-rule:evenodd;clip-rule:evenodd;fill:url(#Path-41_1_);}
</style>
<desc>Created with Sketch.</desc>
<g id="Main-Files">
	<g id="_x30_4_x5F_index-Saas-Copy" transform="translate(0.000000, -2051.000000)">
		<g id="Our-Services" transform="translate(-47.000000, 1376.000000)">
			<g id="Bg" transform="translate(0.000000, 675.000000)">
				
					<linearGradient id="Path-41_1_" gradientUnits="userSpaceOnUse" x1="926.1663" y1="1858.078" x2="926.2635" y2="1857.3379" gradientTransform="matrix(2897.3555 0 0 -2491.844 -2682072 4630480)">
					<stop  offset="8.523573e-03" style="stop-color:#F1F9FE"/>
					<stop  offset="0.2234" style="stop-color:#F9FCFF"/>
					<stop  offset="0.8097" style="stop-color:#FEF4E1"/>
					<stop  offset="1" style="stop-color:#FFF1C2"/>
				</linearGradient>
				<path id="Path-41" class="st0" d="M685,435c160,112.2,555.3,211,988,8s857,240,857,612c0,319-72.5,423-111.5,464
					c-228.1,239.8-430.5,69-715.5,186c-193,79.2-227,197-224,331s141.5,348.4,445,283.4s346,136.6,530.5,166.6s265.2-56.2,406.5-242
					c94.2-123.9,6.2-871.9-264-2244C1071,9.7,221,15.3,47,17c-36.5,0.3-84,349,0,345S425.5,253,685,435z"/>
			</g>
		</g>
	</g>
</g>
</svg>
